libs/common/icons/src/icons/ConfigurationOutlined.svg

<svg width="24" height="24" viewBox="0 0 24 24" fill="none" xmlns="http://www.w3.org/2000/svg">
<path d="M12 16.5C14.4853 16.5 16.5 14.4853 16.5 12C16.5 9.51472 14.4853 7.5 12 7.5C9.51472 7.5 7.5 9.51472 7.5 12C7.5 14.4853 9.51472 16.5 12 16.5Z" stroke="#333333" stroke-linecap="round" stroke-linejoin="round"/>
<path d="M18.5084 7.55856C18.7302 7.88425 18.9272 8.22615 19.0978 8.58137L21.5303 9.93169C21.8266 11.2924 21.8276 12.7009 21.5333 14.0621L19.0994 15.4132C18.9283 15.7681 18.7307 16.1097 18.5084 16.435L18.5552 19.2168C17.5249 20.1537 16.3056 20.8589 14.9797 21.2846L12.5927 19.8524C12.1997 19.8816 11.8051 19.8813 11.4122 19.8514L9.02655 21.2828C7.69996 20.859 6.47968 20.1557 5.44802 19.2202L5.49487 16.4369C5.27305 16.1112 5.07601 15.7693 4.90542 15.4141L2.47297 14.0638C2.17669 12.7031 2.17567 11.2946 2.46998 9.93341L4.9038 8.58234C5.07494 8.22739 5.27252 7.8858 5.49486 7.56046L5.44804 4.77873C6.47834 3.84176 7.6976 3.13665 9.02358 2.71094L11.4105 4.14315C11.8035 4.11389 12.1981 4.1142 12.5911 4.14408L14.9767 2.71266C16.3033 3.13646 17.5236 3.83981 18.5552 4.77528L18.5084 7.55856Z" stroke="#333333" stroke-linecap="round" stroke-linejoin="round"/>
</svg>

<svg xmlns="http://www.w3.org/2000/svg" width="24" height="24" fill="none" viewBox="0 0 24 24">
  <path stroke="currentColor" stroke-linecap="round" stroke-linejoin="round" d="M12 16.5a4.5 4.5 0 1 0 0-9 4.5 4.5 0 0 0 0 9Z"/>
  <path stroke="currentColor" stroke-linecap="round" stroke-linejoin="round" d="M18.508 7.559c.222.325.42.667.59 1.022l2.432 1.35a9.74 9.74 0 0 1 .003 4.131L19.1 15.413a7.864 7.864 0 0 1-.59 1.022l.046 2.782a9.74 9.74 0 0 1-3.575 2.068l-2.387-1.433c-.393.03-.788.03-1.18 0l-2.386 1.43a9.74 9.74 0 0 1-3.579-2.062l.047-2.783a7.869 7.869 0 0 1-.59-1.023l-2.432-1.35a9.74 9.74 0 0 1-.003-4.13l2.434-1.352c.17-.355.369-.696.59-1.022L5.449 4.78A9.74 9.74 0 0 1 9.024 2.71l2.387 1.432c.393-.03.787-.029 1.18.001l2.386-1.431a9.74 9.74 0 0 1 3.578 2.062l-.047 2.784Z"/>
</svg>
